lib/flags/l/484.svg

<svg xmlns="http://www.w3.org/2000/svg" fill="none" viewBox="0 0 32 24"><mask id="484_svg__a" width="32" height="24" x="0" y="0" mask-type="alpha" maskUnits="userSpaceOnUse"><path fill="#fff" d="M0 0H32V24H0z"/></mask><g mask="url(#484_svg__a)"><path fill="#D9071E" fill-rule="evenodd" d="M22 0H32V24H22V0Z" clip-rule="evenodd"/><path fill="#006923" fill-rule="evenodd" d="M0 0H12V24H0V0Z" clip-rule="evenodd"/><path fill="#fff" fill-rule="evenodd" d="M10 0H22V24H10V0Z" clip-rule="evenodd"/><path fill="#A8AC71" fill-rule="evenodd" d="M13.0555 8.34173C12.9492 8.79689 13.0184 8.90433 13.5323 8.90433C13.559 8.90433 13.6014 8.97976 13.6474 9.06182C13.6979 9.15184 13.753 9.24983 13.7967 9.26497C13.778 9.2898 13.5826 9.64294 13.5816 10.265C13.5815 10.3931 13.641 10.6041 13.6983 10.8069C13.7605 11.0274 13.82 11.238 13.7967 11.3213C13.7588 11.4568 13.5889 11.3091 13.4573 11.1947C13.382 11.1293 13.3193 11.0747 13.3008 11.0902C13.2068 11.1693 13.1583 10.5431 13.129 10.1648C13.1159 9.99635 13.1067 9.87703 13.0989 9.89096C13.0661 9.81861 13.0527 9.72972 13.0395 9.6419C13.0107 9.45092 12.9827 9.26497 12.7573 9.26497H12.1772V9.69207C12.1772 9.69207 12.5129 9.69207 12.5129 10.4866C12.5184 10.6054 12.6751 11.6502 13.0555 11.6556C12.8326 11.6606 12.8342 11.7051 12.8352 11.7312L12.8353 11.7358C12.8353 12.375 13.3695 12.4441 13.8688 12.2637C14.1688 12.1552 14.4874 11.9435 14.7259 11.6826C15.0625 11.3143 15.1041 10.8375 14.6621 10.5761C14.5047 10.483 14.334 10.4471 14.0952 10.4338C14.1424 10.2936 14.0977 10.1685 14.0628 10.0708C14.0337 9.98915 14.0114 9.92675 14.0555 9.89096C14.5561 9.48494 14.6007 9.11072 14.2365 8.77504C14.1892 8.7315 14.1435 8.67246 14.0964 8.61169L14.0964 8.61169C14.0077 8.49713 13.9142 8.37642 13.7967 8.34173C13.851 8.23221 13.9241 8.09951 14.0159 7.94665L13.1586 7.43188C13.0032 7.69075 13.0291 7.89322 13.0518 8.06967C13.0642 8.16652 13.0756 8.25553 13.0555 8.34173ZM13.9878 11.0079L13.9723 11.0245L13.9828 11.015C13.9845 11.0121 13.9861 11.0097 13.9878 11.0079ZM13.5342 11.3213C13.5339 11.3214 13.5345 11.3212 13.5356 11.321L13.5358 11.321L13.5454 11.3191C13.5415 11.3197 13.5379 11.3205 13.5358 11.321L13.5342 11.3213ZM13.0989 11.6551C13.0872 11.6551 13.076 11.6552 13.0653 11.6554L13.0837 11.655L13.0989 11.6551Z" clip-rule="evenodd"/><path fill="#FCCA3D" fill-rule="evenodd" d="M14.384 7.91345C14.384 7.91345 13.6972 8.44611 13.8257 9.01399C13.9541 9.58187 15.3076 9.01399 15.144 8.46372C14.9804 7.91345 14.384 7.91345 14.384 7.91345Z" clip-rule="evenodd"/><path fill="#8F4620" fill-rule="evenodd" d="M19.2664 12.4029C19.2664 12.4029 20.1914 9.66155 18.7211 8.24251C17.2507 6.82347 15.5516 6.91843 15.5516 6.91843C15.5516 6.91843 15.0623 7.28197 15.5516 7.55923C16.0409 7.83649 15.8359 8.10233 15.8359 8.10233C15.8359 8.10233 15.0164 7.27029 14.4725 7.7564C13.9285 8.24251 14.9803 8.16853 14.8689 8.53455C14.7576 8.90057 14.2859 10.5256 14.9751 11.3461C15.6644 12.1665 14.3235 11.9885 14.5962 11.9885C14.8689 11.9885 15.8359 12.1794 15.8359 11.9885C15.8359 11.7975 16.172 12.7309 16.4597 12.7309C16.7474 12.7309 16.9695 12.4029 16.9695 12.4029C16.9695 12.4029 17.3728 12.7309 17.6185 12.7309C17.8642 12.7309 18.7211 12.5163 18.7211 12.5163L17.1016 11.1517C17.1016 11.1517 17.1992 10.5499 16.9695 10.4196C16.7397 10.2893 18.8112 11.574 18.9735 11.9885C19.1357 12.4029 19.2664 12.4029 19.2664 12.4029Z" clip-rule="evenodd"/><path fill="#9FAB2F" d="M11.0664 11.7266C11.0664 11.7266 11.2166 11.248 11.3773 11.2148C11.5166 11.186 11.8094 11.4441 11.8094 11.4441C12.3297 14.334 13.5876 15.4627 15.6749 15.4627C17.7867 15.4627 19.0666 14.605 19.8135 11.9398C19.8135 11.9398 20.2106 11.5343 20.3507 11.5794C20.5032 11.6284 20.6943 12.1649 20.6943 12.1649C19.8375 15.2225 18.2185 16.5839 15.6749 16.5839C13.1067 16.5839 11.6638 15.0448 11.0664 11.7266Z"/><path fill="#2FC2DC" fill-rule="evenodd" d="M13.3341 13.6565C13.3341 13.6565 16.3385 14.2938 17.5243 14.2938C18.7102 14.2938 16.4839 15.2616 15.6152 15.2616C15.2352 15.2616 14.7772 15.0313 14.2412 14.5706C14.1451 14.488 14.2382 14.3032 13.9455 14.3007C13.5374 14.2972 13.0304 14.2015 13.0789 14.1431C13.125 14.0876 13.7188 14.0709 13.6616 14.0102C13.5672 13.9102 13.3341 13.6565 13.3341 13.6565Z" clip-rule="evenodd"/><rect width="2" height="1.071" x="14.667" y="14.1" fill="#F9AA51" rx=".167"/><path fill="#259485" d="M12.1754 12.1359C12.1754 12.1359 12.1754 11.7609 12.4294 11.5616C12.7205 11.3332 12.994 11.5616 12.994 11.5616C14.0595 13.0802 15.6528 13.5798 17.8812 13.0584C17.8812 13.0584 18.5475 13.2761 18.581 13.4192C18.6234 13.6007 18.109 14.0321 18.109 14.0321C15.504 14.6416 13.4904 14.0102 12.1754 12.1359Z"/><path fill="#FCCA3D" fill-rule="evenodd" d="M16.5913 12.3502C16.5913 12.3502 15.3776 12.9891 15.7822 12.9891 16.1867 12.9891 17.77 13.3085 17.4619 12.9891 17.1538 12.6697 16.5913 12.3502 16.5913 12.3502zM15.1563 11.5882C15.1563 11.5882 14.9257 10.9221 14.4458 10.9221 13.9659 10.9221 14.1014 11.4685 13.8706 11.4685 13.6398 11.4685 14.0856 11.853 14.2843 11.853 14.483 11.853 15.1563 11.5882 15.1563 11.5882z" clip-rule="evenodd"/></g></svg>

<svg xmlns="http://www.w3.org/2000/svg" fill="none" viewBox="0 0 32 24"><mask id="484_svg__a" width="32" height="24" x="0" y="0" maskUnits="userSpaceOnUse"><path fill="#fff" d="M0 0h32v24H0z"/></mask><g mask="url(#484_svg__a)"><path fill="#D9071E" fill-rule="evenodd" d="M22 0h10v24H22V0z" clip-rule="evenodd"/><path fill="#006923" fill-rule="evenodd" d="M0 0h12v24H0V0z" clip-rule="evenodd"/><path fill="#fff" fill-rule="evenodd" d="M10 0h12v24H10V0z" clip-rule="evenodd"/><path fill="#A8AC71" fill-rule="evenodd" d="M13.056 8.342c-.107.455-.038.562.476.562.027 0 .07.076.115.158.05.09.106.188.15.203-.019.025-.214.378-.215 1 0 .128.059.34.116.542.063.22.122.431.099.514-.038.136-.208-.012-.34-.126-.075-.066-.138-.12-.156-.105-.094.08-.143-.547-.172-.925-.013-.169-.022-.288-.03-.274a.968.968 0 01-.06-.249c-.028-.191-.056-.377-.282-.377h-.58v.427s.336 0 .336.795c.005.118.162 1.163.543 1.169-.223.005-.222.05-.22.075v.005c0 .64.534.708 1.033.528.3-.109.618-.32.857-.581.336-.369.378-.845-.064-1.107-.157-.093-.328-.129-.567-.142.047-.14.003-.265-.032-.363-.03-.082-.052-.144-.008-.18.501-.406.546-.78.181-1.116a1.311 1.311 0 01-.14-.163c-.088-.115-.182-.236-.3-.27.055-.11.128-.242.22-.395l-.857-.515c-.156.259-.13.461-.107.638.012.097.024.186.004.272zm.932 2.666l-.016.017.01-.01a.048.048 0 01.006-.007zm-.454.313h.002l.01-.002-.01.002h-.002zm-.435.334a1.8 1.8 0 00-.034 0h.034z" clip-rule="evenodd"/><path fill="#FCCA3D" fill-rule="evenodd" d="M14.384 7.913s-.687.533-.558 1.1c.128.569 1.482 0 1.318-.55-.164-.55-.76-.55-.76-.55z" clip-rule="evenodd"/><path fill="#8F4620" fill-rule="evenodd" d="M19.266 12.403s.925-2.741-.545-4.16c-1.47-1.42-3.17-1.325-3.17-1.325s-.489.364 0 .641c.49.277.285.543.285.543s-.82-.832-1.364-.346c-.543.487.508.413.397.779-.111.366-.583 1.99.106 2.811.69.82-.652.643-.379.643s1.24.19 1.24 0c0-.192.336.742.624.742.287 0 .51-.328.51-.328s.403.328.649.328c.245 0 1.102-.215 1.102-.215l-1.62-1.364s.098-.602-.131-.732c-.23-.13 1.841 1.154 2.004 1.569.162.414.292.414.292.414z" clip-rule="evenodd"/><path fill="#9FAB2F" d="M11.066 11.727s.15-.479.311-.512c.14-.029.432.23.432.23.52 2.889 1.779 4.018 3.866 4.018 2.112 0 3.392-.858 4.139-3.523 0 0 .397-.406.537-.36.152.048.343.585.343.585-.857 3.058-2.476 4.419-5.02 4.419-2.567 0-4.01-1.54-4.608-4.857z"/><path fill="#2FC2DC" fill-rule="evenodd" d="M13.334 13.656s3.005.638 4.19.638c1.186 0-1.04.968-1.909.968-.38 0-.838-.23-1.374-.692-.096-.082-.003-.267-.296-.27-.408-.003-.915-.099-.866-.157.046-.055.64-.072.583-.133-.095-.1-.328-.354-.328-.354z" clip-rule="evenodd"/><rect width="2" height="1.071" x="14.667" y="14.1" fill="#F9AA51" rx=".167"/><path fill="#259485" d="M12.175 12.136s0-.375.254-.574c.291-.229.565 0 .565 0 1.066 1.518 2.659 2.018 4.887 1.496 0 0 .666.218.7.361.042.182-.472.613-.472.613-2.605.61-4.619-.022-5.934-1.896z"/><path fill="#FCCA3D" fill-rule="evenodd" d="M16.591 12.35s-1.213.64-.809.64c.405 0 1.988.319 1.68 0-.308-.32-.87-.64-.87-.64zm-1.435-.762s-.23-.666-.71-.666-.345.547-.575.547c-.231 0 .215.384.413.384.199 0 .872-.265.872-.265z" clip-rule="evenodd"/></g></svg>
